X: 3
T: Bus Stop Reel
I: Bus Stop Reel	R-139	D	reel
%C: R-139
C: Anita Anderson \2511987
Z: Transcribed to abc by Mary Lou Knack
R: reel
M: C|
K: Am
"Am"A2eA dAc2| ABcA "G"BAGB| "Am"A2eA dAc2| "C"cde^f "G"gedB|
"Am"A2eA dAc2| ABcA "G"BAG2| "F"FGAc "G"BAGB| "Am"cABG A4:|
|:"Am"ea-ag edcB| ABcd e4| ea-ag "C"edc2| "D"de^fd "E"e4|
"Am"ea-ag edcB| ABcd e2dc| "G"BAGF EFGB| "Am"cABG A4 :|
%%text Roaring Jelly R-139

#include "LeftHeader.h"
%%scale .65
% ---------- set 68 ----------
% Rose in the Heather (D) / Hills of Sharon (D) / Out On the Ocean (A)
%%text Set 68
%%vskip -1cm
